src/components/common/icons/volume.svg

<svg height="51" viewBox="0 0 51 51" width="51" xmlns="http://www.w3.org/2000/svg"><g fill="#010202" fill-rule="evenodd" transform="translate(-1 -1)"><path d="m8.06965152 42.035825 3.02099998 3.056625 8.5442424-8.643375-3.021-3.056625z"/><path d="m20.1136606 50.7622375 4.1259697 1.119625 2.8957273-10.93625-4.1259697-1.118z"/><path d="m12.167997 25.8015875-10.80718185 2.929875 1.1049697 4.17625 10.80718185-2.933125z"/><path d="m51.4223667 12.5334625c0-3.01925-1.1627879-5.858125-3.2715455-7.995-2.1103636-2.133625-4.9161515-3.3085-7.9002121-3.3085-2.9824546 0-5.7898485 1.174875-7.9002121 3.3085l-9.5978182 9.712625h-17.05154547l32.85196967 33.239375v-17.242875l9.5978182-9.72075c2.1087576-2.136875 3.2715455-4.97575 3.2715455-7.993375zm-17.1414849 24.52125-18.2657273-18.481125h6.7374243l11.528303 11.674zm10.8473334-19.5845-8.7112728 8.827-9.7600303-9.884875 8.7144849-8.815625c1.3025151-1.3195 3.0354545-2.045875 4.8792121-2.045875 1.8421515 0 3.576697.726375 4.8776061 2.045875 2.6917575 2.721875 2.6917575 7.15 0 9.8735z"/></g></svg>

<?xml version="1.0" encoding="UTF-8"?>
<svg width="51px" height="51px" viewBox="0 0 51 51" version="1.1" xmlns="http://www.w3.org/2000/svg" xmlns:xlink="http://www.w3.org/1999/xlink">
    <!-- Generator: Sketch 52.5 (67469) - http://www.bohemiancoding.com/sketch -->
    <title>Icons/.volume</title>
    <desc>Created with Sketch.</desc>
    <g id="Vapaaehtoisalusta-Layouts" stroke="none" stroke-width="1" fill="none" fill-rule="evenodd">
        <g id="HKI-Ikonit" transform="translate(-360.000000, -657.000000)" fill="#010202">
            <g id="Icons/.volume" transform="translate(359.000000, 656.000000)">
                <polygon id="Fill-57" points="8.06965152 42.035825 11.0906515 45.09245 19.6348939 36.449075 16.6138939 33.39245"></polygon>
                <polygon id="Fill-58" points="20.1136606 50.7622375 24.2396303 51.8818625 27.1353576 40.9456125 23.0093879 39.8276125"></polygon>
                <polygon id="Fill-59" points="12.167997 25.8015875 1.36081515 28.7314625 2.46578485 32.9077125 13.2729667 29.9745875"></polygon>
                <path d="M51.4223667,12.5334625 C51.4223667,9.5142125 50.2595788,6.6753375 48.1508212,4.5384625 C46.0404576,2.4048375 43.2346697,1.2299625 40.2506091,1.2299625 C37.2681545,1.2299625 34.4607606,2.4048375 32.350397,4.5384625 L22.7525788,14.2510875 L5.70103333,14.2510875 L38.553003,47.4904625 L38.553003,30.2475875 L48.1508212,20.5268375 C50.2595788,18.3899625 51.4223667,15.5510875 51.4223667,12.5334625 Z M34.2808818,37.0547125 L16.0151545,18.5735875 L22.7525788,18.5735875 L34.2808818,30.2475875 L34.2808818,37.0547125 Z M45.1282152,17.4702125 L36.4169424,26.2972125 L26.6569121,16.4123375 L35.371397,7.5967125 C36.6739121,6.2772125 38.4068515,5.5508375 40.2506091,5.5508375 C42.0927606,5.5508375 43.8273061,6.2772125 45.1282152,7.5967125 C47.8199727,10.3185875 47.8199727,14.7467125 45.1282152,17.4702125 Z" id="Fill-60"></path>
            </g>
        </g>
    </g>
</svg>
